assets/images/ico_file.svg

<svg width="30" height="36" viewBox="0 0 30 36" fill="none" xmlns="http://www.w3.org/2000/svg">
<path d="M25.5731 5.12219H24.9424H7.22487C6.02077 5.12219 5.04602 6.08972 5.04602 7.2849V31.5869C5.04602 32.7821 6.02077 33.7497 7.22487 33.7497H25.5731C26.7772 33.7497 27.7519 32.7821 27.7519 31.5869V7.2849C27.7519 6.08972 26.7772 5.12219 25.5731 5.12219Z" fill="#D3C9BE"/>
<path d="M1.49079 3.69937V30.904C1.49079 31.3024 1.14676 31.6439 0.745396 31.6439C0.344029 31.6439 0 31.3024 0 30.904V3.69937C0 1.65049 1.66281 0 3.72698 0H24.9421C25.3435 0 25.6875 0.341481 25.6875 0.739875C25.6875 1.13827 25.3435 1.47975 24.9421 1.47975H3.66964C2.46554 1.53666 1.49079 2.50419 1.49079 3.69937ZM29.2998 31.587C29.2998 33.6358 27.637 35.2863 25.5728 35.2863H7.22461C5.50446 35.2863 4.07101 34.1481 3.66964 32.6114C3.55497 32.4976 3.49763 32.3268 3.49763 32.1561V31.587V7.28492C3.49763 5.23604 5.16043 3.58555 7.22461 3.58555H24.9421H25.5728C27.637 3.58555 29.2998 5.23604 29.2998 7.28492V31.587Z" fill="#D3C9BE"/>
<g filter="url(#filter0_i)">
<path d="M12.6543 14C9.79377 14 8 15.9249 8 19.0034C8 22.0818 9.79377 24 12.6543 24C15.5148 24 17.3086 22.0818 17.3086 19.0034C17.3086 15.9249 15.5148 14 12.6543 14ZM12.6543 15.4755C14.4073 15.4755 15.5148 16.8437 15.5148 19.0034C15.5148 21.1563 14.4073 22.5245 12.6543 22.5245C10.9013 22.5245 9.79377 21.1563 9.79377 19.0034C9.79377 16.8437 10.9081 15.4755 12.6543 15.4755Z" fill="#ABA297"/>
<path d="M23.3014 23.839H25V16.7297H18.6471V23.839H20.3389V18.0174H23.3014V23.839Z" fill="#ABA297"/>
</g>
<defs>
<filter id="filter0_i" x="8" y="14" width="17" height="11" filterUnits="userSpaceOnUse" color-interpolation-filters="sRGB">
<feFlood flood-opacity="0" result="BackgroundImageFix"/>
<feBlend mode="normal" in="SourceGraphic" in2="BackgroundImageFix" result="shape"/>
<feColorMatrix in="SourceAlpha" type="matrix" values="0 0 0 0 0 0 0 0 0 0 0 0 0 0 0 0 0 0 127 0" result="hardAlpha"/>
<feOffset dy="1"/>
<feGaussianBlur stdDeviation="0.5"/>
<feComposite in2="hardAlpha" operator="arithmetic" k2="-1" k3="1"/>
<feColorMatrix type="matrix" values="0 0 0 0 0 0 0 0 0 0 0 0 0 0 0 0 0 0 0.25 0"/>
<feBlend mode="normal" in2="shape" result="effect1_innerShadow"/>
</filter>
</defs>
</svg>

<svg width="30" height="36" fill="none" xmlns="http://www.w3.org/2000/svg"><path d="M25.573 5.122H7.225a2.17 2.17 0 00-2.179 2.163v24.302a2.17 2.17 0 002.179 2.163h18.348a2.17 2.17 0 002.179-2.163V7.285a2.17 2.17 0 00-2.179-2.163z" fill="#D3C9BE"/><path d="M1.49 3.7v27.204c0 .398-.343.74-.745.74a.756.756 0 01-.745-.74V3.699C0 1.65 1.663 0 3.727 0h21.215c.401 0 .745.341.745.74 0 .398-.344.74-.745.74H3.67c-1.204.057-2.18 1.024-2.18 2.22zM29.3 31.586c0 2.049-1.663 3.7-3.727 3.7H7.225c-1.72 0-3.154-1.139-3.555-2.676a.644.644 0 01-.172-.455V7.285c0-2.049 1.662-3.7 3.727-3.7h18.347c2.065 0 3.728 1.651 3.728 3.7v24.302z" fill="#D3C9BE"/><g filter="url(#filter0_i)" fill="#ABA297"><path d="M12.654 14C9.794 14 8 15.925 8 19.003 8 22.082 9.794 24 12.654 24s4.655-1.918 4.655-4.997c0-3.078-1.794-5.003-4.655-5.003zm0 1.476c1.753 0 2.86 1.368 2.86 3.527 0 2.153-1.107 3.521-2.86 3.521s-2.86-1.368-2.86-3.52c0-2.16 1.114-3.529 2.86-3.529zm10.647 8.363H25v-7.11h-6.353v7.11h1.692v-5.822H23.3v5.822z"/></g><defs><filter id="filter0_i" x="8" y="14" width="17" height="11" filterUnits="userSpaceOnUse" color-interpolation-filters="sRGB"><feFlood flood-opacity="0" result="BackgroundImageFix"/><feBlend in="SourceGraphic" in2="BackgroundImageFix" result="shape"/><feColorMatrix in="SourceAlpha" values="0 0 0 0 0 0 0 0 0 0 0 0 0 0 0 0 0 0 127 0" result="hardAlpha"/><feOffset dy="1"/><feGaussianBlur stdDeviation=".5"/><feComposite in2="hardAlpha" operator="arithmetic" k2="-1" k3="1"/><feColorMatrix values="0 0 0 0 0 0 0 0 0 0 0 0 0 0 0 0 0 0 0.25 0"/><feBlend in2="shape" result="effect1_innerShadow"/></filter></defs></svg>
